X: 2
T: The High
R: reel
M: 4/4
L: 1/8
K: Amix
|:a2fa eA (3AAA|cAeA cAAg|a2fa eA (3AAA|Bcdc BGGg|a2fa eA (3AAA|Bdef g2fg|afge fdec|1dfed cA A2:|2dfed cA A|||:B|(3cBA eA fAeA|cAef e2ed|(3cBA eA fAeA|Bdgd BGGB|(3cBA eA fAeA|Bdef g2fg|afge fdec|1dfed cA A:|2dfed cA A2||


Tune 44	Setting 29400

